!!!!SEGMENT: pl-sa--l-1636--044_anonim--keyboard-piece.krn
!!!cenid: 17xx:751
!!!COM: Anonim
!!!COM-rismid: pe30004985
!!!CDT:
!!!CNT:
!!!OTL: Keyboard piece
!!!PDT:
!!!AGN: Secular
!!!SMS-siglum: PL-SA
!!!SMS-shelfmark: L 1636
!!!SMS-shelfwork: 044 W
!!!SMS-variant:
!!!SMS-altvar:
!!!NIFC-rismid: 1001076529
!!!URL-scan: http://repozytorium.nifc.pl/skany/pl-sa-nut--l1636
!!!ONB-nifc: 12v-13r, skan 0016, s. 3-5
**kern	**kern
*part2	*part1
*staff2	*staff1
*group1	*group1
*clefC3	*clefC1
*k[]	*k[]
*M2/2	*M2/2
*met(c|)	*met(c|)
=1	=1
*2\right	*2\right
1ryy	8r
!	!LO:TX:a:t=P:problem:8\right:global
.	8g\L
.	8b\
.	8cc\J
.	8dd\L
.	8a\
.	8dd\
.	8cc\J
=2	=2
2ryy	8b\L
.	8a\
.	8b\
.	8cc#X\J
8r	2dd\
!LO:TX:a:t=♯	!
!LO:TX:a:t=P:problem:8\right:global	!
8f#y\L	.
8e\	.
8d\J	.
=3	=3
*	*^
!LO:TX:a:t=P:problem:mixed beam	!	!LO:TX:a:t=P:problem:4\right:global
8g\L	2ee/	4dd\
8e\	.	.
8a\	.	4cc#X\
8A\J	.	.
8r	2dd/	2a/
8d\L	.	.
8f#X\	.	.
8g\J	.	.
*	*v	*v
=4	=4
8a\L	8cc\L
8e\J	8b\
8a\L	8cc\
!LO:TX:a:t=P:problem:16\right:global	!LO:TX:a:t=P:problem:16\right:global
16b\L	16dd\L
16a\JJ	16cc\JJ
8g\L	8b\L
8d\J	8a\J
8g\L	8b\L
16a\L	16cc\L
16g\JJ	16b\JJ
=5	=5
!LO:TX:a:t=P:problem:4\right:global	!
4.f#X\	8a\L
.	16b\L
.	16cc#X\JJ
.	4.dd\
16e\LL	.
16d\JJ	.
4.e\	.
.	16cc#\LL
.	16b\JJ
.	[4cc#\
!LO:TX:a:t=♯	!
8f#y\	.
!!LO:LB:g=original
=6	=6
*	*^
4.g\	8cc#\L]	4ryy
.	16b\L	.
.	16a\JJ	.
.	4b/	4g\
8B/	.	.
8c/L	2a/	4g\
8A/J	.	.
!LO:TX:a:t=P:problem:mixed beam	!	!
8d\L	.	4f#X\
8D/J	.	.
*clefC4	*	*
=7	=7	=7
8r	2b/	2g/
8G\L	.	.
8B\	.	.
8c#X\J	.	.
8d\L	2a/	2f#X\
8A\	.	.
8d\	.	.
!LO:SIC:s=8cn:v	!	!
8c#\J	.	.
=8	=8	=8
!	!LO:N:vis=4	!
8B\L	2b/	2g\
8G\	.	.
8B\	.	.
8c\J	.	.
!LO:TX:a:t=P:problem:mixed beam	!	!
8d\L	2a/	4g\
8D/	.	.
!LO:TX:b:t=♯	!	!
8F#y/	.	4f#X\
8D/J	.	.
=9	=9	=9
!LO:TX:a:t=P:problem:mixed beam	!	!
8G\L	8b/L	4ryy
8B\	8dd/J	.
8A\	4ee/	8dd\L
8AA/J	.	8cc\J
*clefF4	*	*
!	!LO:SIC:s=2f#:v	!
8r	2a/ 2dd	2f\
8D\L	.	.
8F#X\	.	.
8G\J	.	.
!!LO:PB:g=original
=10	=10	=10
8A\L	4.cc/	2a\
8G\	.	.
8A\	.	.
!LO:TX:a:t=♯	!	!
8F#y\J	16dd/LL	.
.	16cc/JJ	.
8G\L	4.b/	2g\
8F#\	.	.
8G\	.	.
8E\J	16cc/LL	.
.	16b/JJ	.
*	*v	*v
=11	=11
!LO:TX:a:t=♯	!
4.F#y\	8a\L
.	16b\L
.	16cc\JJ
.	4.dd\
16E\LL	.
16D\JJ	.
4.E\	.
.	16cc\LL
.	16b\JJ
.	[4cc\
!LO:TX:a:t=♯	!
8F#\	.
=12	=12
*	*^
!	!LO:N:xstem:cue	!
4.G\	8cc\L]	4ryy
.	16b\L	.
.	16a\JJ	.
.	4b/	4g\
8BB/	.	.
8C/L	2a/	4g\
16BB/L	.	.
16AA/JJ	.	.
8D/L	.	4f#X\
8DD/J	.	.
=13	=13	=13
8r	2b/	2d\ 2g
8GG/L	.	.
8BB/	.	.
8C/J	.	.
8D/L	2f#X/ 2a	2d\
8AA/	.	.
8D/	.	.
8C/J	.	.
=14	=14	=14
!	!LO:TX:a:t=P:problem:uszkodzony papier	!
8BB/L	2b\	2ryy
8GG/	.	.
8C/	.	.
8E/J	.	.
8C/L	2a/	4g\
8AA/	.	.
8D/	.	4f#X\
8DD/J	.	.
*	*v	*v
=15	=15
1GG 1BB 1D	1d 1g 1b
==	==
*-	*-
!!!system-decoration: [(g1)]
!!!ENC:Anna Matuszewska
!!!END:2020-12-08
!!!ENC:Andrzej Borzym
!!!END:2020-06-11
